animals/mule.svg

<svg xmlns="http://www.w3.org/2000/svg" viewBox="0 0 512 512">
  <path d="M 499.57712305025996 206.30849220103985 Q 498.6897746967071 206.30849220103985 499.57712305025996 206.30849220103985 L 499.57712305025996 206.30849220103985 Z M 494.2530329289428 137.09532062391682 Q 489.8162911611785 126.4471403812825 488.9289428076257 124.67244367417678 L 488.9289428076257 124.67244367417678 L 488.9289428076257 124.67244367417678 Q 488.04159445407277 122.89774696707106 486.26689774696706 119.34835355285962 L 486.26689774696706 119.34835355285962 L 486.26689774696706 119.34835355285962 Q 485.3795493934142 115.79896013864818 481.8301559792028 104.263431542461 Q 480.05545927209704 95.38994800693241 476.50606585788563 86.51646447140381 Q 473.844020797227 82.07972270363952 472.95667244367417 80.3050259965338 Q 472.0693240901213 79.41767764298093 472.0693240901213 78.53032928942808 Q 472.95667244367417 74.98093587521664 479.1681109185442 66.10745233968804 Q 485.3795493934142 56.346620450606586 489.8162911611785 47.47313691507799 Q 493.36568457538993 37.712305025996535 488.9289428076257 36.824956672443676 Q 484.49220103986136 36.824956672443676 480.05545927209704 43.92374350086655 Q 475.6187175043328 48.360485268630846 471.18197573656846 51.90987868284229 Q 465.8578856152513 54.57192374350087 464.97053726169844 55.45927209705373 Q 463.19584055459273 56.346620450606586 461.421143847487 56.346620450606586 Q 457.87175043327557 55.45927209705373 456.09705372616986 51.90987868284229 Q 455.209705372617 48.360485268630846 456.09705372616986 42.14904679376083 Q 456.9844020797227 30.613518197573658 453.43500866551125 28.838821490467936 Q 450.7729636048527 29.7261698440208 446.3362218370884 39.487001733102254 Q 441.8994800693241 49.247833622183705 438.35008665511265 51.90987868284229 Q 436.57538994800694 51.90987868284229 433.91334488734833 51.02253032928943 Q 426.81455805892546 49.247833622183705 411.72963604852686 51.02253032928943 Q 396.64471403812826 52.79722703639515 371.79896013864817 67.88214904679376 Q 359.3760831889081 74.09358752166378 341.62911611785097 88.29116117850953 Q 323.88214904679376 101.60138648180242 308.79722703639516 113.1369150779896 Q 294.5996533795494 124.67244367417678 294.5996533795494 125.55979202772964 Q 291.05025996533794 128.2218370883882 284.8388214904679 129.10918544194107 Q 275.0779896013865 131.77123050259965 262.65511265164645 139.75736568457538 Q 242.24610051993068 152.18024263431542 220.06239168110918 153.95493934142115 Q 197.8786828422877 154.842287694974 181.90641247833622 152.18024263431542 Q 165.93414211438474 148.63084922010398 164.15944540727904 147.74350086655113 Q 116.24263431542461 136.20797227036394 90.50953206239168 134.43327556325823 Q 64.77642980935875 133.54592720970538 50.578856152513 139.75736568457538 Q 36.38128249566724 145.9688041594454 23.07105719237435 158.39168110918544 Q 10.648180242634316 169.9272097053726 6.211438474870017 179.68804159445406 Q 1.7746967071057191 189.44887348353552 1.7746967071057191 192.1109185441941 Q 1.7746967071057191 192.1109185441941 1.7746967071057191 192.99826689774696 Q 0 212.51993067590988 5.324090121317158 233.8162911611785 Q 7.098786828422877 242.6897746967071 7.986135181975737 249.78856152512998 Q 7.986135181975737 256.88734835355285 7.986135181975737 262.21143847487 Q 7.986135181975737 268.42287694974004 8.873483535528596 284.3951473136915 Q 9.760831889081455 300.367417677643 15.084922010398614 336.7487001733102 Q 15.084922010398614 337.6360485268631 16.859618717504333 337.6360485268631 Q 18.63431542461005 337.6360485268631 19.52166377816291 338.52339688041593 Q 18.63431542461005 347.39688041594457 15.972270363951473 349.17157712305027 Q 15.972270363951473 349.17157712305027 15.972270363951473 350.0589254766031 Q 13.310225303292894 356.27036395147314 15.972270363951473 364.25649913344887 Q 17.746967071057192 370.4679376083189 19.52166377816291 383.7781629116118 Q 22.18370883882149 397.97573656845753 23.07105719237435 405.96187175043326 Q 23.07105719237435 432.58232235701905 23.07105719237435 439.6811091854419 Q 23.95840554592721 446.7798960138648 24.84575389948007 449.4419410745234 Q 29.28249566724437 457.42807625649914 36.38128249566724 458.315424610052 Q 38.15597920277296 459.20277296360484 39.93067590987868 460.0901213171577 Q 41.705372616984405 462.7521663778163 40.81802426343154 466.3015597920277 Q 40.81802426343154 468.96360485268633 40.81802426343154 470.73830155979203 Q 42.592720970537265 474.28769497400344 47.02946273830156 475.17504332755635 Q 53.240901213171576 477.8370883882149 62.114384748700175 476.94974003466206 Q 70.10051993067592 475.17504332755635 72.76256499133449 473.4003466204506 Q 73.64991334488735 472.51299826689774 73.64991334488735 471.6256499133449 Q 74.5372616984402 469.8509532062392 76.31195840554592 468.96360485268633 Q 83.41074523396881 468.96360485268633 88.73483535528597 466.3015597920277 Q 94.05892547660312 463.63951473136916 89.62218370883882 457.42807625649914 Q 89.62218370883882 456.5407279029463 86.07279029462738 451.2166377816291 Q 83.41074523396881 445.89254766031195 81.63604852686308 443.2305025996534 Q 79.86135181975736 441.4558058925477 77.19930675909879 440.5684575389948 Q 76.31195840554592 439.6811091854419 74.5372616984402 438.7937608318891 Q 70.98786828422877 435.24436741767767 68.3258232235702 429.03292894280764 Q 65.66377816291161 422.8214904679376 65.66377816291161 421.93414211438477 Q 62.114384748700175 408.6239168110919 60.33968804159446 392.65164644714037 Q 58.56499133448874 376.6793760831889 62.114384748700175 362.48180242634317 Q 64.77642980935875 353.60831889081453 72.76256499133449 335.8613518197574 Q 81.63604852686308 317.2270363951473 88.73483535528597 301.25476603119586 Q 96.72097053726169 285.28249566724435 97.60831889081456 284.3951473136915 Q 100.27036395147314 279.95840554592723 107.36915077989602 278.1837088388215 Q 114.46793760831889 275.5216637781629 121.56672443674177 278.1837088388215 Q 123.34142114384748 279.0710571923743 126.89081455805892 282.6204506065858 Q 132.21490467937608 287.0571923743501 144.63778162911612 294.155979202773 Q 157.06065857885616 301.25476603119586 179.24436741767764 305.6915077989601 Q 203.20277296360484 310.12824956672443 225.38648180242635 308.35355285961873 Q 247.57019064124782 307.4662045060659 263.5424610051993 305.6915077989601 Q 274.19064124783364 303.9168110918544 279.51473136915075 303.9168110918544 Q 280.40207972270366 304.80415944540727 279.51473136915075 311.90294627383014 Q 277.74003466204505 319.88908145580587 278.6273830155979 338.52339688041593 Q 278.6273830155979 350.0589254766031 278.6273830155979 352.7209705372617 Q 278.6273830155979 355.3830155979203 277.74003466204505 357.157712305026 Q 276.8526863084922 358.04506065857885 275.0779896013865 365.1438474870017 Q 274.19064124783364 370.4679376083189 275.0779896013865 377.56672443674177 Q 276.8526863084922 388.2149046793761 273.3032928942808 406.8492201039861 Q 273.3032928942808 411.28596187175043 270.6412478336222 419.27209705372616 Q 266.2045060658579 434.35701906412476 266.2045060658579 445.0051993067591 Q 267.09185441941077 446.7798960138648 267.9792027729636 448.55459272097056 Q 267.9792027729636 454.7660311958406 271.528596187175 457.42807625649914 Q 275.0779896013865 458.315424610052 276.8526863084922 458.315424610052 Q 282.17677642980937 456.5407279029463 280.40207972270366 467.18890814558057 Q 279.51473136915075 469.8509532062392 279.51473136915075 474.28769497400344 Q 279.51473136915075 478.72443674176776 282.17677642980937 480.49913344887347 Q 285.7261698440208 483.1611785095321 297.26169844020797 483.1611785095321 Q 308.79722703639516 483.1611785095321 314.1213171577123 481.3864818024263 Q 315.89601386481803 480.49913344887347 315.89601386481803 478.72443674176776 Q 316.7833622183709 476.94974003466206 319.44540727902944 474.28769497400344 Q 320.33275563258235 474.28769497400344 322.10745233968805 474.28769497400344 Q 328.3188908145581 474.28769497400344 330.0935875216638 468.96360485268633 Q 329.2062391681109 466.3015597920277 325.65684575389946 459.20277296360484 Q 322.10745233968805 452.10398613518197 321.2201039861352 451.2166377816291 Q 319.44540727902944 448.55459272097056 316.7833622183709 447.66724436741765 Q 313.2339688041594 445.89254766031195 311.4592720970537 444.11785095320624 Q 307.02253032928945 435.24436741767767 308.79722703639516 416.6100519930676 Q 310.57192374350086 397.97573656845753 312.34662045060657 390.87694974003466 Q 313.2339688041594 385.5528596187175 315.0086655112652 380.2287694974003 Q 317.67071057192373 371.35528596187174 319.44540727902944 362.48180242634317 Q 326.5441941074523 336.7487001733102 328.3188908145581 325.21317157712303 Q 330.98093587521663 312.790294627383 334.5303292894281 302.1421143847487 Q 334.5303292894281 301.25476603119586 335.41767764298095 297.7053726169844 Q 337.19237435008665 292.3812824956672 339.8544194107452 285.28249566724435 Q 341.62911611785097 279.0710571923743 343.4038128249567 275.5216637781629 Q 355.8266897746967 254.22530329289427 371.79896013864817 235.59098786828423 Q 372.686308492201 234.70363951473138 373.5736568457539 233.8162911611785 Q 385.9965337954939 217.84402079722705 397.5320623916811 200.9844020797227 Q 408.18024263431545 185.89948006932408 419.7157712305026 171.70190641247834 Q 420.60311958405543 169.9272097053726 422.3778162911612 168.1525129982669 Q 425.9272097053726 159.2790294627383 435.6880415944541 164.60311958405546 Q 440.12478336221835 166.37781629116117 444.56152512998267 168.1525129982669 Q 454.3223570190641 171.70190641247834 464.0831889081456 179.68804159445406 Q 475.6187175043328 192.1109185441941 473.844020797227 196.5476603119584 Q 473.844020797227 198.32235701906413 473.844020797227 200.09705372616983 Q 477.3934142114385 208.0831889081456 487.1542461005199 208.0831889081456 Q 487.1542461005199 208.0831889081456 487.1542461005199 208.0831889081456 Q 499.57712305025996 205.421143847487 499.57712305025996 206.30849220103985 Q 503.1265164644714 203.64644714038127 505.78856152513 199.20970537261698 Q 506.67590987868283 197.43500866551128 507.5632582322357 195.66031195840554 Q 512 191.22357019064125 512 184.12478336221838 Q 512 181.4627383015598 512 179.68804159445406 Q 511.11265164644715 177.91334488734836 508.45060658578853 172.5892547660312 Q 504.9012131715771 164.60311958405546 494.2530329289428 137.09532062391682 L 494.2530329289428 137.09532062391682 Z" />
</svg>

<?xml version="1.0" encoding="UTF-8"?>
<svg viewBox="0 0 512 512" xmlns="http://www.w3.org/2000/svg">
 <path d="m499.58 206.31q-0.88735 0 0 0zm-5.3241-69.213q-4.4367-10.648-5.3241-12.423-0.88735-1.7747-2.662-5.3241-0.88735-3.5494-4.4367-15.085-1.7747-8.8735-5.3241-17.747-2.662-4.4367-3.5494-6.2114-0.88735-0.88735-0.88735-1.7747 0.88735-3.5494 7.0988-12.423 6.2114-9.7608 10.648-18.634 3.5494-9.7608-0.88735-10.648-4.4367 0-8.8735 7.0988-4.4367 4.4367-8.8735 7.9861-5.3241 2.662-6.2114 3.5494-1.7747 0.88735-3.5494 0.88735-3.5494-0.88735-5.3241-4.4367-0.88735-3.5494 0-9.7608 0.88735-11.536-2.662-13.31-2.662 0.88735-7.0988 10.648-4.4367 9.7608-7.9861 12.423-1.7747 0-4.4367-0.88735-7.0988-1.7747-22.184 0-15.085 1.7747-39.931 16.86-12.423 6.2114-30.17 20.409-17.747 13.31-32.832 24.846-14.198 11.536-14.198 12.423-3.5494 2.662-9.7608 3.5494-9.7608 2.662-22.184 10.648-20.409 12.423-42.593 14.198-22.184 0.88735-38.156-1.7747-15.972-3.5494-17.747-4.4367-47.917-11.536-73.65-13.31-25.733-0.88735-39.931 5.3241-14.198 6.2114-27.508 18.634-12.423 11.536-16.86 21.296-4.4367 9.7608-4.4367 12.423 0 0 0 0.88735-1.7747 19.522 3.5494 40.818 1.7747 8.8735 2.662 15.972 0 7.0988 0 12.423 0 6.2114 0.88735 22.184 0.88735 15.972 6.2114 52.354 0 0.88735 1.7747 0.88735 1.7747 0 2.662 0.88735-0.88735 8.8735-3.5494 10.648 0 0 0 0.88735-2.662 6.2114 0 14.198 1.7747 6.2114 3.5494 19.522 2.662 14.198 3.5494 22.184 0 26.62 0 33.719 0.88735 7.0988 1.7747 9.7608 4.4367 7.9861 11.536 8.8735 1.7747 0.88735 3.5494 1.7747 1.7747 2.662 0.88735 6.2114 0 2.662 0 4.4367 1.7747 3.5494 6.2114 4.4367 6.2114 2.662 15.085 1.7747 7.9861-1.7747 10.648-3.5494 0.88735-0.88735 0.88735-1.7747 0.88735-1.7747 2.662-2.662 7.0988 0 12.423-2.662 5.3241-2.662 0.88735-8.8735 0-0.88735-3.5494-6.2114-2.662-5.3241-4.4367-7.9861-1.7747-1.7747-4.4367-2.662-0.88735-0.88735-2.662-1.7747-3.5494-3.5494-6.2114-9.7608-2.662-6.2114-2.662-7.0988-3.5494-13.31-5.3241-29.282-1.7747-15.972 1.7747-30.17 2.662-8.8735 10.648-26.62 8.8735-18.634 15.972-34.607 7.9861-15.972 8.8735-16.86 2.662-4.4367 9.7608-6.2114 7.0988-2.662 14.198 0 1.7747 0.88735 5.3241 4.4367 5.3241 4.4367 17.747 11.536 12.423 7.0988 34.607 11.536 23.958 4.4367 46.142 2.662 22.184-0.88735 38.156-2.662 10.648-1.7747 15.972-1.7747 0.88735 0.88735 0 7.9861-1.7747 7.9861-0.88735 26.62 0 11.536 0 14.198t-0.88735 4.4367q-0.88735 0.88735-2.662 7.9861-0.88735 5.3241 0 12.423 1.7747 10.648-1.7747 29.282 0 4.4367-2.662 12.423-4.4367 15.085-4.4367 25.733 0.88735 1.7747 1.7747 3.5494 0 6.2114 3.5494 8.8735 3.5494 0.88735 5.3241 0.88735 5.3241-1.7747 3.5494 8.8735-0.88735 2.662-0.88735 7.0988 0 4.4367 2.662 6.2114 3.5494 2.662 15.085 2.662 11.536 0 16.86-1.7747 1.7747-0.88735 1.7747-2.662 0.88735-1.7747 3.5494-4.4367 0.88735 0 2.662 0 6.2114 0 7.9861-5.3241-0.88735-2.662-4.4367-9.7608-3.5494-7.0988-4.4367-7.9861-1.7747-2.662-4.4367-3.5494-3.5494-1.7747-5.3241-3.5494-4.4367-8.8735-2.662-27.508 1.7747-18.634 3.5494-25.733 0.88735-5.3241 2.662-10.648 2.662-8.8735 4.4367-17.747 7.0988-25.733 8.8735-37.269 2.662-12.423 6.2114-23.071 0-0.88735 0.88735-4.4367 1.7747-5.3241 4.4367-12.423 1.7747-6.2114 3.5494-9.7608 12.423-21.296 28.395-39.931 0.88735-0.88735 1.7747-1.7747 12.423-15.972 23.958-32.832 10.648-15.085 22.184-29.282 0.88735-1.7747 2.662-3.5494 3.5494-8.8735 13.31-3.5494 4.4367 1.7747 8.8735 3.5494 9.7608 3.5494 19.522 11.536 11.536 12.423 9.7608 16.86 0 1.7747 0 3.5494 3.5494 7.9861 13.31 7.9861 12.423-2.662 12.423-1.7747 3.5494-2.662 6.2114-7.0988 0.88735-1.7747 1.7747-3.5494 4.4367-4.4367 4.4367-11.536 0-2.662 0-4.4367-0.88735-1.7747-3.5494-7.0988-3.5494-7.9861-14.198-35.494z"/>
</svg>
